X:1
T:Salve Regina in D - Webbe
T:#
%%score [ 1 2 3 ] { ( 4 6 ) | ( 5 7 ) }
L:1/8
Q:1/4=72
M:4/4
K:D
V:1 treble nm="Treble" snm="S"
V:2 treble-8 nm="Tenor" snm="T"
V:3 bass nm="Bass" snm="B"
V:4 bass nm="Organ"
V:6 bass 
V:5 bass 
V:7 bass 
V:1
"^larghetto""^Salve Regina in D""^Samuel Webbe\n(1740-1816)" z8 | z8 | z8 | z4!f! d2 !fermata!d2 | %4
w: |||Sal- ve,|
 z8 |[M:4/4] z8 | z8 | z4 z2 z d | (d>c) c2 z4 | A2 A2 A2 (3ABc | d4 !fermata!d4 || %11
w: |||dul-|ce\- * do,|et spes no- stra, * *|sal- ve.|
[M:2/2]"^andante"[Q:1/4=84] z8 | z8 | z8 | z2 d2 c2 B2 | (B3 ^A) A4 | %16
w: |||Ad te cla-|ma\- * mus,|
 [df]>[ce] [ce]2 [Bd]>[^Ac] [Ac]2 |[M:2/2][Q:1/4=84][Q:1/4=84][Q:1/4=84][Q:1/4=84] z8 | %18
w: e- xu- les fi- li- i||
 [df]>[ce] [ce]2 [Bd]2 [^Ac]2 | z4 z2 [^Ac]2 | [Bd]2 [^Ac]2 z2 [Ac]2 | [Bd]2 [^Ac]f F2 F2 | %22
w: fi- li- i E- vae,|ge-|men- tes, ge-|men- tes et flen- tes,|
 z2 ^A2 B2 B=A | G2 (FE) ^D2 !fermata!E2 | z2 E2 G2 FE | D2 (CB,) ^A,2 !fermata!B,2 || %26
w: In hac la- chry-|ma- rum * val- le,|in hac la- chry-|ma- rum * val- le.|
[M:4/4]"^largo"[Q:1/4=72][Q:1/4=72] B2 B2 c2 c2 | d2 F2 G2 F2 | B4 !fermata!A4 || %29
w: E- ia er- go,|Ad- vo- ca- ta|no- stra,|
[M:6/8]"^supplichevole"[Q:1/4=60] z dd d c2 | dAB =c2 A | B/>B/Be A2 d | %32
w: Il- los tu- os|mi- se- ri- cor- des|o- cu- los ad nos con-|
[M:6/8][Q:1/4=60][Q:1/4=60][Q:1/4=60][Q:1/4=60]{A} G3 F3 | z6 | z6 | F2 F A2 G | F3 E3 | A3 E2 F | %38
w: * te|||fru- ctum ven- tris|tu- i,|No- bis, post|
 G3 G3 |{G} F2 F F2 G | A3 F3 | z2 G G2 G | G2 G F2 F | E3- TE3 | D6 ||[M:4/4] x8 | %46
w: hoc e-|* li- um, o-|sten- de,|post hoc e-|xi- li- um, o-|sten\- *|de,||
[M:4/4][Q:1/4=72]"^larghetto"[Q:1/4=72][Q:1/4=72][Q:1/4=72] z8 | z4 z2 A2 | F2 F2 z2 d2 | %49
w: |O|cle- mens, O|
 c2 c2 z2 d2 | c2 c2 d2 F2 | G2 EA F2 !fermata!D2 | d4 D2 (EF) | G2 (AB) A2 D2 | G4 G2 E2 | %55
w: pi- a, O|dul- cis, dul- cis|Vir- go Ma- ri- a,|O dul- cis *|Vir- go, * dul- cis|Vir- go Ma-|
 F4 !fermata!F4 |] %56
w: ri- a.|
V:2
 z8 | z8 | z8 | z4!f! f2 !fermata!f2 | z8 |[M:4/4][K:treble-8] z2 e3 c (3ABc | d>A A2 z4 | %7
w: |||Sal- ve,||Ma- ter mi- se- ri-|cor- di- ae,|
 A2 A2 z4 | z8 | c2 c2 d2 g2 | f4 !fermata!d4 ||[M:2/2] z8 | z2 d2 B2 F2 | (G3 F) F4 | %14
w: Vi- ta,||et spes no- stra,|sal- ve.||Ad te cla-|ma\- * mus,|
 z2 f2 e2 d2 | (d3 c) c4 | z4 z2 ^A2 |[M:2/2][K:treble-8] (B d2) (c/B/) B2 ^A2 | z4 z2 ^A2 | %19
w: ad te cla-|ma\- * mus,|ad|te * cla\- * ma- mus,|ad|
 B d2 (c/B/) B2 ^A2 | z2 c2 d2 c2 | z2 c2 d2 c2 | z2 ^A2 B2 B=A | G2 (FE) ^D2 !fermata!E2 | %24
w: te su- spi\- * ra- mus,|ge- men- tes|et flen- tes,|In hac la- chry-|ma- rum * val- le,|
 z2 [Ee]2 [Gg]2 [Ff][Ee] | [Dd]2 ([Cc][B,B]) [^A,^A]2 !fermata![B,B]2 ||[M:4/4][K:treble-8] z8 | %27
w: in hac la- chry-|ma- rum * val- le.||
 d8- | d4 !fermata!d4 ||[M:6/8] z6 | z6 | z6 |[M:6/8][K:treble-8] z6 | z3 z AA | d2 d d2 c | %35
w: E\-|* ia,|||||be- ne-|di- ctum fru- ctum,|
 d2 d f2 e | d3 c3 | z6 | e3 B2 c | d3 d3 | d2 d d2 d | d6 | c3 d3 | (d3 Tc3) | d6 ||[M:4/4] x8 | %46
w: fru- ctum ven- tris|tu- i,||No- bis, post|hoc e-|xi- li- um, o-|sten-|de, o-|sten\- *|de,||
[M:4/4][K:treble-8] z8 | z4 z2 c2 | d2 d2 z2 d2 | e2 e2 z4 | z4 d2 d2 | e2 cc d2 !fermata!d2 | %52
w: |O|cle- mens, O|pi- a,|dul- cis|Vir- go Ma- ri- a,|
 d4 d2 =c2 | B2 d4 d2 | (d4 c4) | !fermata!d8 |] %56
w: O dul- cis|Vir- go Ma-|ri\- *|a.|
V:3
 z8 | z8 | z8 | z4!f! D,2 !fermata!D,2 | z2 A,4 F,>D, |[M:4/4] B,2 G,2 E,4 | F,4 z4 | A,2 A,2 z4 | %8
w: |||Sal- ve,|sal- ve Re-|gi- na, sal-|ve,|Vi- ta,|
 z8 | A,2 G,2 F,2 E,2 | D,4 !fermata!D,4 ||[M:2/2] z8 | z2 D2 B,2 F,2 | (G,3 F,) F,4 | z4 z2 B,,2 | %15
w: |et spes no- stra,|sal- ve.||Ad te cla-|ma\- * mus,|cla-|
 F,4 F,4 | z4 z2 F,2 |[M:2/2] G,2 ^E,2 F,2 F,2 | z4 z2 F,2 | G,2 ^E,E, F,2 F,2 | z2 ^A,2 B,2 A,2 | %21
w: ma- mus,|ad|te cla- ma- mus,|ad|te su- spi- ra- mus,|ge- men- tes|
 z2 ^A,2 B,2 A,2 | z2 ^A,2 B,2 B,=A, | G,2 (F,E,) ^D,2 !fermata!E,2 | z2 E,2 G,2 F,E, | %25
w: et flen- tes,|In hac la- chry-|ma- rum * val- le,|in hac la- chry-|
 D,2 (C,B,,) ^A,,2 !fermata!B,,2 ||[M:4/4] G,2 G,2 G,2 G,2 | F,2 A,2 B,2 A,2 | G,4 !fermata!F,4 || %29
w: ma- rum * val- le.|E- ia er- go,|Ad- vo- ca- ta|no- stra,|
[M:6/8] z6 | z6 | z6 |[M:6/8] z3 z2 D, | A,3 G,3 | F,3 E,3 | D,3 D,3 | A,3 A,,3 | z6 | z6 | %39
w: |||Et|Je- sum,|fru- ctum|ven- tris|tu- i,|||
 D3 A,2 B, | =C3 C3 | B,3- B,2 B, | A,3 A,3 | A,6 | D,6 ||[M:4/4] x8 |[M:4/4] z8 | z4 z2 A,2 | %48
w: No- bis, post|hoc e-|xi\- * li-|um, o-|sten-|de,|||O|
 D2 D,2 z2 D,2 | A,2 A,2 z4 | z4 D,2 B,2 | G,2 A,A, D2 !fermata!D,2 | (D2 =C2) B,2 A,2 | %53
w: cle- mens, O|pi- a,|dul- cis|Vir- go Ma- ri- a,|O * dul- cis|
 G,4 F,2 F,2 | E,8 | !fermata!D,8 |] %56
w: Vir- go Ma-|ri-|a.|
V:4
"^larghetto" D,2 (3A,,B,,C, D,2 (3A,,B,,C, | (3D,E,F, (3G,A,B, (3CDE (3A,B,C | %2
 D2 (3A,B,C[K:treble] (3DEF (3GAB | (3cde (3[CA][DB][Ec] [Fd]2 !fermata![DFAd]2 | %4
[K:bass] A,2 A,2- [F,A,]2 F,>D, |[M:4/4] [G,B,]2 [G,B,E]2- E>C (3A,B,C |[K:treble] D4 (3FAG (3FED | %7
 A2 A2 (3fag (3fed | d>c c2 (3FAG (3FED | [CA]2 [CEA]2 [DA]2 (3ABc | [Fd]4 !fermata![DFAd]4 || %11
[M:2/2][K:bass]"^andante" TB,>^A, B,2 TF,>^E, F,2 | B,2 D2 B,2 F,2 | (G,3 F,) F,4 | %14
[K:treble] [Fd]2 ([Fd]2 [Ec]2 [DB]2) | ([DB]3 [C^A]) [CA]4 | ([df]>[ce]) [ce]2 ([Bd]>[^Ac]) [Ac]2 | %17
[M:2/2] B, D2 C/B,/ (B,2 ^A,2) | ([df]>[ce]) [ce]2 ([Bd]2 [^Ac]2) | z4 z2 [^Ac]2 | %20
 ([Bd]2 [^Ac]2) z2 [Ac]2 | ([Bd]2 [^Ac]-)[Af] F2 F2 | [CF^A]2 A2 B2 (B=A) | %23
 (G2 FE) ^D2 !fermata!E2 | z2 E2 (G2 FE) | (D2 CB,) (^A,2 !fermata!B,2) || %26
[M:4/4]"^largo" B2 B2 c2 c2 | ([Ad]2 F2 G2 F2) | (B4 !fermata!A4) ||[M:6/8] ddd (dcc) | %30
 ([Ad]AB) (=c2 A) | (BBe) (A2 d) |[M:6/8] (AGG) F2 z | z3 z A,A, | D2 D (D2 C) | %35
 [DF]2 [DF] ([FA]2 [EG]) | ([DF]3 [CE]3) | (A3 E2 F) | G3 G3 |{G} F2 F F2 G | A3 F3 | G2 G G2 G | %42
 G2 G F2 F | E6 | D6 ||[M:4/4] x8 |[M:4/4] z8 | z4 z2 A2 | F2 [DF]2 z2 [Dd]2 | c2 c2 (3fag (3fed | %50
 c2 c2 [DFAd]2 [DF]2 | [B,EG]2 EA [DF]2 !fermata!D2 | [Dd]4 D2 EF | G2 AB A2 D2- | [DG]4 G2 E2 | %55
 F4 !fermata!F4 |] %56
V:5
 [D,,,D,,]2 z2 z4 | z8 | D,2 (3A,,B,,C, D,2 B,>G, | A,4 [D,,A,,D,]2 !fermata![D,,A,,D,]2 | %4
 [C,E,]4 D,4 |[M:4/4] G,,4 A,,4 | D,2 D,,2 (3D,F,E, (3D,C,B,, | A,,4 (3DFE (3DCB, | %8
 A,4 (3D,F,E, (3D,C,B,, | [A,,A,]2 [G,,G,]2 [F,,F,]2 [E,,E,]2 | D,4 !fermata![D,,A,,D,]4 || %11
[M:2/2] B,,>^A,, B,,2 F,,>^E,, F,,2 | B,,8 | E,4 D,4 | B,,6 B,,2 | F,4 F,4 | [F,,F,]6 [F,^A,]2 | %17
[M:2/2] G,2 [^E,^G,]2 F,4 | [F,,F,]6 [F,^A,]2 | G,2 [^E,^G,]2 F,4 | F,8 | F,8 | %22
 [F,,F,]2 [^A,,^A,]2 [B,,B,]2 ([B,,B,][=A,,=A,]) | %23
 ([G,,G,]2 [F,,F,][E,,E,]) ([^D,,^D,]2 !fermata![E,,E,]2) | %24
 [E,,E,]2 [E,,E,]2 ([G,,G,]2 [F,,F,][E,,E,]) | (D,2 C,B,,) (^A,,2 !fermata!B,,2) || %26
[M:4/4] G,2 G,2 G,2 G,2 | [F,,F,]2 [A,,A,]2 [B,,B,]2 [A,,A,]2 | [G,,G,]4 !fermata![F,,F,]4 || %29
[M:6/8] ([D,,D,]3 [E,,E,]3) | [F,,F,]6 | [G,,G,]3 [F,,F,]3 | %32
[M:6/8] ([E,,E,]2 [A,,,A,,] [D,,D,]2) [D,,D,] | ([A,,A,]3 [G,,G,]3) | F,3 E,3 | D,3 D,3 | %36
 A,3 A,,3 | z6 | z6 | ([D,D]3 [A,,A,]2 [B,,B,]) | [=C,=C]3 [C,C]3 | [B,,B,]3 [B,,B,]2 [B,,B,] | %42
 [A,,A,]3 [A,,A,]3 | (A,3 [A,,G,]3 | [D,F,]6) ||[M:4/4] x8 | %46
[M:4/4] [D,,D,]2 (3[A,,,A,,][B,,,B,,][C,,C,] [D,,D,]2 (3[A,,,A,,][B,,,B,,][C,,C,] | %47
 (3[D,,D,][E,,E,][F,,F,] (3[G,,G,][A,,A,][B,,B,] (3[C,C][D,D][E,E] (3[A,C][B,D][CE] | %48
 D2 D,2 (3D,F,E, (3D,C,B,, | A,,4 (3DFE (3DCB, | A,2 A,,2 D,2 B,2 | %51
 G,2 A,2 [D,A,]2 !fermata![D,F,]2 | [D,D]2 [=C,=C]2 [B,,B,]2 [A,,A,]2 | [G,,G,]4 [F,,F,]2 [F,A,]2 | %54
 [E,B,]4 [A,,E,A,]4 | !fermata![D,,A,,D,]8 |] %56
V:6
 x8 | x8 | x4[K:treble] x4 | x8 |[K:bass] x8 |[M:4/4] x8 |[K:treble] x8 | C4 x4 | [EA]4 x4 | %9
 x6 G2 | x8 ||[M:2/2][K:bass] x8 | x8 | x8 |[K:treble] x8 | x8 | F4 F4 |[M:2/2] x8 | F4 F4 | %19
[I:staff +1] B, D2 C/B,/ B,2 ^A,2 |[I:staff -1] x2[I:staff +1] [^A,C]2 [B,D]2 [A,C]2 | %21
[I:staff -1] x2[I:staff +1] [^A,C]2 [B,D]2 [A,C]2 | x8 | x8 | x8 | x8 || %26
[M:4/4][I:staff -1] [DG]4 [EA]4 | D8- | D4 D4 ||[M:6/8] [FA]3 G3 | D6 | D2 G D3 |[M:6/8] C3 D2 x | %33
 x6 | x6 | x6 | x6 | x6 | (E3 B,2 C) | D3 D3 | D2 D D2 D | D3 D3 | ^C3 D3- | D3 C3 | D6 || %45
[M:4/4] x8 |[M:4/4] x8 | x8 | x8 | E4 A2 A2 | A4 x4 | x2 C2 x4 | x4 x2 =C2 | B,2 D4 x2 | x4 ^C4 | %55
 [A,D]8 |] %56
V:7
 x8 | x8 | x8 | x8 | x8 |[M:4/4] x8 | x8 | x8 | x8 | x8 | x8 ||[M:2/2] x8 | x8 | x8 | x8 | x8 | %16
 x8 |[M:2/2] x8 | x8 | x8 | x8 | x8 | x8 | x8 | x8 | x8 ||[M:4/4] G,,8 | x8 | x8 ||[M:6/8] x6 | %30
 x6 | x6 |[M:6/8] x6 | x6 | x6 | x6 | x6 | x6 | x6 | x6 | x6 | x6 | x6 | x6 | x6 ||[M:4/4] x8 | %46
[M:4/4] x8 | x8 | x8 | x8 | x8 | x8 | x8 | x8 | x8 | x8 |] %56

